src/icons/solid/communication/microphone-off.svg

<svg width="24" height="24" viewBox="0 0 24 24" fill="none" xmlns="http://www.w3.org/2000/svg">
<g clip-path="url(#clip0_4191_702)">
<path d="M5.21645 8.82126C5.53179 8.88754 5.76919 9.17372 5.76919 9.51657V11.9394C5.81049 13.5892 6.48604 15.1554 7.64907 16.2968C8.81411 17.4402 10.3735 18.064 11.986 18.0322H11.9987C12.8978 18.031 13.787 17.8387 14.61 17.4677C14.96 17.31 15.3692 17.4732 15.5231 17.832C15.6767 18.1907 15.5174 18.6088 15.1676 18.7666C14.3811 19.1212 13.5448 19.3419 12.692 19.4199V22.29C12.692 22.682 12.382 23 11.9997 23C11.6174 22.9999 11.3073 22.6819 11.3073 22.29V19.4316C9.58419 19.2989 7.95072 18.5574 6.69204 17.3222C5.26249 15.9193 4.43245 13.9929 4.38442 11.9648V9.51657C4.38442 9.12463 4.69445 8.80661 5.07681 8.80661L5.21645 8.82126Z" fill="#3C3B44"/>
<path d="M11.9997 0.350557C12.655 0.341391 13.2644 0.469646 13.8551 0.707979C14.455 0.955442 14.981 1.30384 15.4333 1.7529C15.8855 2.20203 16.2368 2.73367 16.486 3.32028C16.7352 3.90695 16.8551 4.53056 16.8551 5.16306V10.6631C16.9382 11.8547 16.5964 13.0554 15.9411 14.082L16.9752 15.1543C17.2982 14.7419 17.5847 14.3114 17.7877 13.8349C18.0831 13.1474 18.2399 12.3952 18.2399 11.6435V9.28806C18.2399 8.91222 18.5538 8.60056 18.9323 8.60056L19.07 8.61423C19.3838 8.67882 19.6247 8.95902 19.6247 9.28806V11.6435C19.6154 12.5785 19.4304 13.5045 19.0612 14.3662C18.7843 15.0261 18.406 15.6311 17.9538 16.1718L20.8063 19.124L20.7965 19.1142C21.0642 19.3892 21.0548 19.8201 20.778 20.0859C20.5011 20.3517 20.0672 20.3433 19.7995 20.0683L7.35708 7.18845L3.19399 2.88962C2.92637 2.61469 2.93485 2.18379 3.21157 1.91794C3.48846 1.65214 3.92239 1.66161 4.19009 1.93649L7.16274 5.02536C7.18121 4.43889 7.29192 3.87072 7.51333 3.33005C7.76256 2.73422 8.11376 2.21086 8.56606 1.76169C9.0183 1.31268 9.55357 0.955043 10.1442 0.716768C10.7349 0.469283 11.3812 0.368895 11.9997 0.350557Z" fill="#3C3B44"/>
<path d="M7.98599 10.2402C8.30124 10.3065 8.5387 10.5927 8.53872 10.9355C8.53872 12.1464 8.77925 12.9852 9.1061 13.5693C9.43118 14.1501 9.86368 14.5197 10.3131 14.7588C11.2401 15.2517 12.2453 15.192 12.4401 15.1699C12.8201 15.1266 13.1625 15.4073 13.2047 15.7968C13.2468 16.1862 12.9732 16.5367 12.5934 16.58C12.2891 16.6147 10.9588 16.701 9.67544 16.0185C9.01968 15.6697 8.37763 15.1209 7.90493 14.2763C7.434 13.4349 7.15395 12.3407 7.15395 10.9355C7.15398 10.5436 7.464 10.2256 7.84634 10.2256L7.98599 10.2402Z" fill="#3C3B44"/>
</g>
<defs>
<clipPath id="clip0_4191_702">
<rect width="24" height="24" fill="white"/>
</clipPath>
</defs>
</svg>

<svg xmlns="http://www.w3.org/2000/svg" width="24" height="24" fill="none" viewBox="0 0 24 24"><g fill="currentColor" clip-path="url(#a)"><path d="M5.216 8.821a.706.706 0 0 1 .553.696v2.422a6.33 6.33 0 0 0 1.88 4.358 6.02 6.02 0 0 0 4.337 1.735h.013a6.4 6.4 0 0 0 2.611-.564c.35-.158.76.005.913.364a.717.717 0 0 1-.355.935 7.7 7.7 0 0 1-2.476.653v2.87c0 .392-.31.71-.692.71a.7.7 0 0 1-.693-.71v-2.858a7.4 7.4 0 0 1-4.615-2.11 7.77 7.77 0 0 1-2.308-5.357V9.517c0-.392.31-.71.693-.71zM12 .35a4.83 4.83 0 0 1 3.434 1.402c.451.45.803.982 1.052 1.568.25.587.37 1.21.37 1.843v5.5c.082 1.192-.26 2.392-.915 3.419l1.034 1.072c.323-.412.61-.843.813-1.32a5.6 5.6 0 0 0 .452-2.19V9.288c0-.376.314-.687.692-.687l.138.013a.696.696 0 0 1 .555.674v2.355a7.1 7.1 0 0 1-1.67 4.528l2.851 2.953-.01-.01a.68.68 0 0 1-.018.972.69.69 0 0 1-.979-.018L7.357 7.188 3.194 2.89a.68.68 0 0 1 .018-.972.69.69 0 0 1 .978.018l2.973 3.09a4.8 4.8 0 0 1 .35-1.696q.374-.895 1.053-1.568A4.8 4.8 0 0 1 10.144.717C10.734.469 11.381.369 12 .35"/><path d="M7.986 10.24a.706.706 0 0 1 .553.695c0 1.211.24 2.05.567 2.634.325.581.758.95 1.207 1.19.927.493 1.932.433 2.127.41a.697.697 0 0 1 .765.628.705.705 0 0 1-.612.783c-.304.035-1.634.121-2.918-.561a4.34 4.34 0 0 1-1.77-1.743c-.471-.841-.751-1.935-.751-3.34 0-.392.31-.71.692-.71z"/></g><defs><clipPath id="a"><path fill="currentColor" d="M0 0h24v24H0z"/></clipPath></defs></svg>
